icon/lg/aws-kms.svg

<?xml version="1.0" encoding="UTF-8"?>
<svg viewBox="0 0 256 256" version="1.1" xmlns="http://www.w3.org/2000/svg" xmlns:xlink="http://www.w3.org/1999/xlink" preserveAspectRatio="xMidYMid" height="1em" width="1em">
  <defs>
    <linearGradient x1="0%" y1="100%" x2="100%" y2="0%" id="linearGradient-1">
      <stop stop-color="#BD0816" offset="0%"/>
      <stop stop-color="#FF5252" offset="100%"/>
    </linearGradient>
  </defs>
  <g>
    <rect fill="url(#linearGradient-1)" x="0" y="0" width="256" height="256"/>
    <path d="M166.390062,167.98826 L188.790062,167.98826 L188.790062,161.58826 L166.390062,161.58826 L166.390062,167.98826 Z M137.590062,167.98826 L159.990062,167.98826 L159.990062,161.58826 L137.590062,161.58826 L137.590062,167.98826 Z M108.790062,167.98826 L131.190062,167.98826 L131.190062,161.58826 L108.790062,161.58826 L108.790062,167.98826 Z M143.990062,142.38826 C143.990062,138.85866 146.863662,135.98826 150.390062,135.98826 C153.919662,135.98826 156.790062,138.85866 156.790062,142.38826 C156.790062,145.91786 153.919662,148.78826 150.390062,148.78826 C146.863662,148.78826 143.990062,145.91786 143.990062,142.38826 L143.990062,142.38826 Z M163.190062,142.38826 C163.190062,135.32906 157.452462,129.58826 150.390062,129.58826 C143.330862,129.58826 137.590062,135.32906 137.590062,142.38826 C137.590062,149.44746 143.330862,155.18826 150.390062,155.18826 C157.452462,155.18826 163.190062,149.44746 163.190062,142.38826 L163.190062,142.38826 Z M118.390062,135.98826 C121.919662,135.98826 124.790062,138.85866 124.790062,142.38826 C124.790062,145.91786 121.919662,148.78826 118.390062,148.78826 C114.863662,148.78826 111.990062,145.91786 111.990062,142.38826 C111.990062,138.85866 114.863662,135.98826 118.390062,135.98826 L118.390062,135.98826 Z M118.390062,155.18826 C125.452462,155.18826 131.190062,149.44746 131.190062,142.38826 C131.190062,135.32906 125.452462,129.58826 118.390062,129.58826 C111.330862,129.58826 105.590062,135.32906 105.590062,142.38826 C105.590062,149.44746 111.330862,155.18826 118.390062,155.18826 L118.390062,155.18826 Z M211.190062,107.18826 L211.190062,180.78826 C211.190062,182.55466 209.759662,183.98826 207.990062,183.98826 L108.790062,183.98826 L108.790062,177.58826 L204.790062,177.58826 L204.790062,110.38826 L134.390062,110.38826 L134.390062,103.98826 L207.990062,103.98826 C209.759662,103.98826 211.190062,105.42186 211.190062,107.18826 L211.190062,107.18826 Z M98.2268618,123.33866 C96.8956618,123.75786 95.9900618,124.99306 95.9900618,126.38826 L95.9900618,193.71626 L88.3132618,200.29866 L79.9900618,190.78506 L79.9900618,182.38826 C79.9900618,181.54026 79.6540618,180.72426 79.0524618,180.12586 L71.7180618,172.78826 L79.0524618,165.45066 C79.6540618,164.85226 79.9900618,164.03626 79.9900618,163.18826 L79.9900618,156.78826 C79.9900618,155.94026 79.6540618,155.12426 79.0524618,154.52586 L71.7180618,147.18826 L79.0524618,139.85066 C79.6540618,139.25226 79.9900618,138.43626 79.9900618,137.58826 L79.9900618,126.42026 C79.9900618,125.02506 79.0876618,123.78986 77.7564618,123.37066 C61.3020618,118.15466 51.5740618,101.22986 55.1356618,83.9978598 C57.7020618,71.5818598 67.2508618,61.6266598 79.4588618,58.6346598 C89.8556618,56.0842598 100.518062,58.3146598 108.710062,64.7370598 C116.895662,71.1594598 121.590062,80.8010598 121.590062,91.1882598 C121.590062,105.75786 111.983662,118.98026 98.2268618,123.33866 L98.2268618,123.33866 Z M127.990062,91.1882598 C127.990062,78.8234598 122.402862,67.3450598 112.658862,59.7002598 C102.914862,52.0554598 90.2684618,49.3962598 77.9356618,52.4202598 C63.3404618,55.9946598 51.9324618,67.8826598 48.8668618,82.7018598 L48.8668618,82.7050598 C44.8028618,102.36906 55.3596618,121.70986 73.5900618,128.68906 L73.5900618,136.26346 L64.9276618,144.92586 C63.6796618,146.17706 63.6796618,148.19946 64.9276618,149.45066 L73.5900618,158.11306 L73.5900618,161.86346 L64.9276618,170.52586 C63.6796618,171.77706 63.6796618,173.79946 64.9276618,175.05066 L73.5900618,183.71306 L73.5900618,191.98826 C73.5900618,192.76266 73.8716618,193.51146 74.3836618,194.09706 L85.5836618,206.89706 C86.2172618,207.61706 87.1004618,207.98826 87.9900618,207.98826 C88.7292618,207.98826 89.4684618,207.73546 90.0732618,207.21706 L101.273262,197.61706 C101.983662,197.00906 102.390062,196.12266 102.390062,195.18826 L102.390062,128.65386 C117.577262,122.79146 127.990062,107.71946 127.990062,91.1882598 L127.990062,91.1882598 Z M87.9900618,98.7722598 C83.5804618,98.7722598 79.9900618,95.1850598 79.9900618,90.7722598 C79.9900618,86.3626598 83.5804618,82.7722598 87.9900618,82.7722598 C92.4028618,82.7722598 95.9900618,86.3626598 95.9900618,90.7722598 C95.9900618,95.1850598 92.4028618,98.7722598 87.9900618,98.7722598 L87.9900618,98.7722598 Z M87.9900618,76.3722598 C80.0508618,76.3722598 73.5900618,82.8330598 73.5900618,90.7722598 C73.5900618,98.7146598 80.0508618,105.17226 87.9900618,105.17226 C95.9324618,105.17226 102.390062,98.7146598 102.390062,90.7722598 C102.390062,82.8330598 95.9324618,76.3722598 87.9900618,76.3722598 L87.9900618,76.3722598 Z" fill="#FFFFFF"/>
  </g>
</svg>

<svg width="256" height="256" xmlns="http://www.w3.org/2000/svg" preserveAspectRatio="xMidYMid"><defs><linearGradient x1="0%" y1="100%" x2="100%" y2="0%" id="a"><stop stop-color="#BD0816" offset="0%"/><stop stop-color="#FF5252" offset="100%"/></linearGradient></defs><path fill="url(#a)" d="M0 0h256v256H0z"/><path d="M166.39 167.988h22.4v-6.4h-22.4v6.4Zm-28.8 0h22.4v-6.4h-22.4v6.4Zm-28.8 0h22.4v-6.4h-22.4v6.4Zm35.2-25.6c0-3.53 2.874-6.4 6.4-6.4 3.53 0 6.4 2.87 6.4 6.4 0 3.53-2.87 6.4-6.4 6.4-3.526 0-6.4-2.87-6.4-6.4Zm19.2 0c0-7.059-5.738-12.8-12.8-12.8-7.06 0-12.8 5.741-12.8 12.8 0 7.06 5.74 12.8 12.8 12.8 7.062 0 12.8-5.74 12.8-12.8Zm-44.8-6.4c3.53 0 6.4 2.87 6.4 6.4 0 3.53-2.87 6.4-6.4 6.4-3.526 0-6.4-2.87-6.4-6.4 0-3.53 2.874-6.4 6.4-6.4Zm0 19.2c7.062 0 12.8-5.74 12.8-12.8 0-7.059-5.738-12.8-12.8-12.8-7.06 0-12.8 5.741-12.8 12.8 0 7.06 5.74 12.8 12.8 12.8Zm92.8-48v73.6a3.2 3.2 0 0 1-3.2 3.2h-99.2v-6.4h96v-67.2h-70.4v-6.4h73.6a3.2 3.2 0 0 1 3.2 3.2Zm-112.963 16.15a3.198 3.198 0 0 0-2.237 3.05v67.328l-7.677 6.583-8.323-9.514v-8.397c0-.848-.336-1.664-.938-2.262l-7.334-7.338 7.334-7.337a3.192 3.192 0 0 0 .938-2.263v-6.4c0-.848-.336-1.664-.938-2.262l-7.334-7.338 7.334-7.337a3.192 3.192 0 0 0 .938-2.263V126.42c0-1.395-.902-2.63-2.234-3.05-16.454-5.215-26.182-22.14-22.62-39.372 2.566-12.416 12.115-22.371 24.323-25.363 10.397-2.55 21.06-.32 29.251 6.102 8.186 6.422 12.88 16.064 12.88 26.451 0 14.57-9.606 27.792-23.363 32.15Zm29.763-32.15c0-12.365-5.587-23.843-15.331-31.488s-22.39-10.304-34.723-7.28c-14.596 3.575-26.004 15.463-29.07 30.282v.003C44.804 102.37 55.36 121.71 73.59 128.69v7.574l-8.662 8.663a3.202 3.202 0 0 0 0 4.525l8.662 8.662v3.75l-8.662 8.663a3.202 3.202 0 0 0 0 4.525l8.662 8.662v8.275c0 .775.282 1.523.794 2.11l11.2 12.8a3.198 3.198 0 0 0 4.49.32l11.2-9.6a3.194 3.194 0 0 0 1.116-2.43v-66.534c15.187-5.863 25.6-20.935 25.6-37.466Zm-40 7.584c-4.41 0-8-3.587-8-8 0-4.41 3.59-8 8-8 4.413 0 8 3.59 8 8 0 4.413-3.587 8-8 8Zm0-22.4c-7.94 0-14.4 6.461-14.4 14.4 0 7.943 6.46 14.4 14.4 14.4 7.942 0 14.4-6.457 14.4-14.4 0-7.939-6.458-14.4-14.4-14.4Z" fill="#FFF"/></svg>
